X:921
T:Mossy Banks, The
R:reel
D:Kevin Crawford: In Good Company
Z:id:hn-reel-921
M:C|
L:1/8
K:G
gedB ~G3A | BAGB AE~E2 | DEGA Bd~d2 | edgd egfa |
gedB ~G3A | BAGB AE~E2 | DEGA Bdge |1 dBAG EG~G2 :|2 dBAG EGGD ||
|: ~G3B AEGE | DGBG ABGA | Bd~d2 edge | dBGA BA~A2 |
~G3B AEGE | DGBG ABGA | Bd~d2 edge |1 dBAc BGGD :|2 dBAc BGBd ||
|: g2dg egde | gabg agef | g2dg egdB | ABGA BGBd |
g2dg egde | gabg agef | ~g3a gfed | egfa gdef :|

